X: 4087
T: DRIVE HOME THE MAINLANDERS
R: Reel.
%R: reel
B: James Kerr "Merry Melodies" v.4 p.12 #87
Z: 2016 John Chambers <jc:trillian.mit.edu>
M: C|
L: 1/8
K: Bm
b |\
B/B/Bg2 BBdB | cAec fAec |\
B/B/Bg2 BBdB | cAec B/B/B B ::\
a |\
B/B/B (dB) fBdB | caea eAcA |\
BcdB fBdB | cAec B/B/B B :|

%%sep 1 1 500
%%sep 1 1 500

